brandFactory_export/2.Regular/Carrito de la compra_2Regular.svg

<?xml version="1.0" encoding="UTF-8"?>
<svg width="24px" height="24px" viewBox="0 0 24 24" version="1.1" xmlns="http://www.w3.org/2000/svg" xmlns:xlink="http://www.w3.org/1999/xlink">
    <title>2.Regular/Carrito de la compra_2Regular</title>
    <g id="Symbols" stroke="none" stroke-width="1" fill="none" fill-rule="evenodd">
        <g id="2.Regular/Carrito-de-la-compra_2Regular" fill="#5CB615" fill-rule="nonzero">
            <path d="M17.3747899,18.0504202 L10.1647059,18.0504202 C9.15966387,18.0504202 8.26890756,17.7109244 7.58655462,17.0722689 C6.87731092,16.4033613 6.41680672,15.4386555 6.22184874,14.205042 C6.0605042,13.1831933 4.47731092,3.97647059 4.25882353,2.75630252 C4.11428571,1.94957983 3.27394958,1.34453782 2.29915966,1.34453782 L0.675630252,1.34453782 C0.305882353,1.34453782 0.00336134454,1.04201681 0.00336134454,0.672268908 C0.00336134454,0.302521008 0.305882353,-1.77635684e-15 0.675630252,-1.77635684e-15 L2.29915966,-1.77635684e-15 C3.9394958,-1.77635684e-15 5.3210084,1.05882353 5.58319328,2.5210084 C5.65378151,2.90756303 5.85882353,4.0907563 6.11092437,5.56302521 L22.9411765,5.56302521 C23.3109244,5.56302521 23.6134454,5.86218487 23.6134454,6.23529412 C23.6134454,6.29915966 23.6033613,6.36638655 23.5865546,6.42689076 C23.0319328,8.28907563 21.5428571,13.3445378 21.3042017,14.2689076 C20.9848739,15.4991597 20.5210084,16.4033613 19.8857143,17.0386555 C19.2134454,17.7109244 18.3697479,18.0504202 17.3747899,18.0504202 Z M6.34285714,6.90756303 C6.85714286,9.90252101 7.45546218,13.3882353 7.54957983,13.9966387 C7.69747899,14.9277311 8.01680672,15.6302521 8.50756303,16.0941176 C8.94117647,16.5008403 9.49579832,16.7058824 10.1647059,16.7058824 L17.3747899,16.7058824 C18.194958,16.7058824 19.3579832,16.4201681 20,13.9327731 C20.2252101,13.0655462 21.4151261,9.01848739 22.0403361,6.90756303 L6.34285714,6.90756303 L6.34285714,6.90756303 Z M10.1647059,23.6235294 C9.56302521,23.6235294 9.08235294,23.4521008 8.73277311,23.1159664 C8.36638655,22.7630252 8.18151261,22.2689076 8.18151261,21.6403361 C8.18151261,21.0117647 8.36638655,20.5176471 8.73277311,20.1647059 C9.08235294,19.8285714 9.56638655,19.6571429 10.1647059,19.6571429 C10.7630252,19.6571429 11.2470588,19.8285714 11.5966387,20.1647059 C11.9630252,20.5176471 12.1478992,21.0117647 12.1478992,21.6403361 C12.1478992,22.2689076 11.9630252,22.7630252 11.5966387,23.1159664 C11.2470588,23.4521008 10.7663866,23.6235294 10.1647059,23.6235294 Z M10.1647059,21.0016807 C9.67394958,21.0016807 9.52605042,21.1495798 9.52605042,21.6403361 C9.52605042,22.1310924 9.67394958,22.2789916 10.1647059,22.2789916 C10.6554622,22.2789916 10.8033613,22.1310924 10.8033613,21.6403361 C10.8033613,21.1495798 10.6521008,21.0016807 10.1647059,21.0016807 Z M16.7193277,23.6235294 C16.1176471,23.6235294 15.6369748,23.4521008 15.287395,23.1159664 C14.9210084,22.7630252 14.7361345,22.2689076 14.7361345,21.6403361 C14.7361345,21.0117647 14.9210084,20.5176471 15.287395,20.1647059 C15.6369748,19.8285714 16.1210084,19.6571429 16.7193277,19.6571429 C17.3176471,19.6571429 17.8016807,19.8285714 18.1512605,20.1647059 C18.5142857,20.5176471 18.702521,21.0117647 18.702521,21.6403361 C18.702521,22.2689076 18.5176471,22.7630252 18.1512605,23.1159664 C17.8016807,23.4521008 17.3210084,23.6235294 16.7193277,23.6235294 Z M16.7193277,21.0016807 C16.2285714,21.0016807 16.0806723,21.1495798 16.0806723,21.6403361 C16.0806723,22.1310924 16.2285714,22.2789916 16.7193277,22.2789916 C17.210084,22.2789916 17.3579832,22.1310924 17.3579832,21.6403361 C17.3579832,21.1495798 17.2067227,21.0016807 16.7193277,21.0016807 Z" id="Carrito-de-la-compra_2Regular"></path>
        </g>
    </g>
</svg>

<svg width="24" height="24" viewBox="0 0 24 24" xmlns="http://www.w3.org/2000/svg"><path d="M17.375 18.05h-7.21c-1.005 0-1.896-.34-2.578-.978-.71-.669-1.17-1.633-1.365-2.867A1971.777 1971.777 0 004.259 2.756c-.145-.806-.985-1.411-1.96-1.411H.676A.674.674 0 01.003.672C.003.302.306 0 .676 0h1.623c1.64 0 3.022 1.059 3.284 2.521.07.387.276 1.57.528 3.042h16.83a.672.672 0 01.646.864c-.555 1.862-2.044 6.918-2.283 7.842-.32 1.23-.783 2.134-1.418 2.77-.673.672-1.516 1.011-2.511 1.011zM6.343 6.908c.514 2.995 1.112 6.48 1.207 7.089.147.93.467 1.633.958 2.097.433.407.988.612 1.657.612h7.21c.82 0 1.983-.286 2.625-2.773.225-.867 1.415-4.915 2.04-7.025H6.343zm3.822 16.716c-.602 0-1.083-.172-1.432-.508-.367-.353-.551-.847-.551-1.476 0-.628.184-1.122.55-1.475.35-.336.834-.508 1.433-.508.598 0 1.082.172 1.432.508.366.353.55.847.55 1.475 0 .629-.184 1.123-.55 1.476-.35.336-.83.508-1.432.508zm0-2.622c-.491 0-.639.148-.639.638 0 .491.148.639.639.639.49 0 .638-.148.638-.639 0-.49-.15-.638-.638-.638zm6.554 2.622c-.601 0-1.082-.172-1.432-.508-.366-.353-.55-.847-.55-1.476 0-.628.184-1.122.55-1.475.35-.336.834-.508 1.432-.508.599 0 1.083.172 1.432.508.363.353.552.847.552 1.475 0 .629-.185 1.123-.552 1.476-.35.336-.83.508-1.432.508zm0-2.622c-.49 0-.638.148-.638.638 0 .491.148.639.638.639.491 0 .639-.148.639-.639 0-.49-.151-.638-.639-.638z" fill="#5CB615" fill-rule="nonzero"/></svg>
